source/images/icon-migrate.svg

<?xml version="1.0" encoding="UTF-8"?>
<svg width="135px" height="60px" viewBox="0 0 135 60" version="1.1" xmlns="http://www.w3.org/2000/svg" xmlns:xlink="http://www.w3.org/1999/xlink">
    <!-- Generator: Sketch 41.2 (35397) - https://www.sketchapp.com -->
    <title>icon-migrate</title>
    <desc>Created with Sketch.</desc>
    <defs></defs>
    <g id="Updated-HOME-+-icons" stroke="none" stroke-width="1" fill="none" fill-rule="evenodd">
        <g id="Artboard" transform="translate(-124.000000, -1064.000000)">
            <g id="icon-migrate" transform="translate(124.000000, 1064.000000)">
                <path d="M5.231,2.2442 C6.051,2.2442 6.721,2.9072 6.721,3.7412 C6.721,4.5612 6.051,5.2312 5.231,5.2312 C4.404,5.2312 3.734,4.5612 3.734,3.7412 C3.734,2.9142 4.404,2.2442 5.231,2.2442 Z M9.713,2.2442 C10.535,2.2442 11.203,2.9072 11.203,3.7412 C11.203,4.5612 10.535,5.2312 9.713,5.2312 C8.886,5.2312 8.218,4.5612 8.218,3.7412 C8.218,2.9142 8.886,2.2442 9.713,2.2442 Z M6.403,29.5592 L2.987,29.5592 L2.987,7.5022 L38.841,7.5022 L38.841,9.9492 L41.835,9.9492 L41.835,2.9862 C41.835,1.3372 40.491,0.0002 38.841,0.0002 L2.987,0.0002 C1.337,0.0002 0,1.3372 0,2.9862 L0,29.5592 C0,31.2092 1.337,32.5532 2.987,32.5532 L6.403,32.5532 L6.403,29.5592 Z" id="Fill-1" fill="#0093C9"></path>
                <path d="M11.6336,12.1931 C12.4536,12.1931 13.1236,12.8561 13.1236,13.6901 C13.1236,14.5101 12.4536,15.1801 11.6336,15.1801 C10.8066,15.1801 10.1366,14.5101 10.1366,13.6901 C10.1366,12.8631 10.8066,12.1931 11.6336,12.1931 L11.6336,12.1931 Z M16.1156,12.1931 C16.9376,12.1931 17.6056,12.8561 17.6056,13.6901 C17.6056,14.5101 16.9376,15.1801 16.1156,15.1801 C15.2886,15.1801 14.6206,14.5101 14.6206,13.6901 C14.6206,12.8631 15.2886,12.1931 16.1156,12.1931 L16.1156,12.1931 Z M12.8056,39.5081 L9.3896,39.5081 L9.3896,17.4511 L45.2436,17.4511 L45.2436,19.8981 L48.2376,19.8981 L48.2376,12.9351 C48.2376,11.2861 46.8936,9.9491 45.2436,9.9491 L9.3896,9.9491 C7.7396,9.9491 6.4026,11.2861 6.4026,12.9351 L6.4026,39.5081 C6.4026,41.1581 7.7396,42.5021 9.3896,42.5021 L12.8056,42.5021 L12.8056,39.5081 Z" id="Fill-3" fill="#0093C9"></path>
                <path d="M15.792,49.4571 L51.646,49.4571 L51.646,27.4001 L15.792,27.4001 L15.792,49.4571 Z M18.036,22.1421 C18.857,22.1421 19.526,22.8051 19.526,23.6391 C19.526,24.4591 18.857,25.1291 18.036,25.1291 C17.209,25.1291 16.54,24.4591 16.54,23.6391 C16.54,22.8121 17.209,22.1421 18.036,22.1421 L18.036,22.1421 Z M22.518,22.1421 C23.34,22.1421 24.008,22.8051 24.008,23.6391 C24.008,24.4591 23.34,25.1291 22.518,25.1291 C21.691,25.1291 21.023,24.4591 21.023,23.6391 C21.023,22.8121 21.691,22.1421 22.518,22.1421 L22.518,22.1421 Z M51.646,19.8981 L15.792,19.8981 C14.143,19.8981 12.805,21.2351 12.805,22.8841 L12.805,49.4571 C12.805,51.1071 14.143,52.4511 15.792,52.4511 L51.646,52.4511 C53.296,52.4511 54.64,51.1071 54.64,49.4571 L54.64,22.8841 C54.64,21.2351 53.296,19.8981 51.646,19.8981 L51.646,19.8981 Z" id="Fill-5" fill="#0093C9"></path>
                <polygon id="Fill-7" fill="#0093C9" points="97.9072 5.6157 102.5962 16.6087 96.6282 16.6087 98.6022 21.4477 110.6962 21.4477"></polygon>
                <polygon id="Fill-8" fill="#0093C9" points="102.6111 31.4979 106.5611 40.8029 99.5291 40.8029 112.5301 56.6379 107.8421 45.6419 113.8091 45.6419 111.8121 40.8029 109.0441 40.8029 105.0911 31.4979"></polygon>
                <path d="M115.4187,26.2894 C115.5657,26.2894 115.9067,26.1074 115.9067,24.4254 C115.9067,22.7464 115.5657,22.5644 115.4187,22.5644 L107.0887,22.5644 L108.6697,26.2894 L115.4187,26.2894 Z" id="Fill-9" fill="#0093C9"></path>
                <path d="M110.5654,30.756 L116.1624,30.755 C116.3104,30.755 116.6514,30.573 116.6514,28.892 C116.6514,27.212 116.3104,27.03 116.1624,27.03 L108.9844,27.031 L110.5654,30.756 Z" id="Fill-10" fill="#0093C9"></path>
                <path d="M115.4187,35.9644 L107.8917,35.9644 L109.4727,39.6884 L115.4187,39.6884 C115.5657,39.6884 115.9067,39.5074 115.9067,37.8274 C115.9067,36.1464 115.5657,35.9644 115.4187,35.9644" id="Fill-11" fill="#FEFEFE"></path>
                <path d="M116.1622,31.4978 L105.9962,31.4978 L107.5772,35.2228 L116.1622,35.2228 C116.3102,35.2228 116.6512,35.0398 116.6512,33.3608 C116.6512,31.6798 116.3102,31.4978 116.1622,31.4978" id="Fill-12" fill="#FEFEFE"></path>
                <path d="M115.4187,35.9644 L107.8917,35.9644 L109.4727,39.6884 L115.4187,39.6884 C115.5657,39.6884 115.9067,39.5074 115.9067,37.8274 C115.9067,36.1464 115.5657,35.9644 115.4187,35.9644" id="Fill-13" fill="#0093C9"></path>
                <path d="M116.1622,31.4978 L105.9962,31.4978 L107.5772,35.2228 L116.1622,35.2228 C116.3102,35.2228 116.6512,35.0398 116.6512,33.3608 C116.6512,31.6798 116.3102,31.4978 116.1622,31.4978" id="Fill-14" fill="#0093C9"></path>
                <path d="M104.7756,30.7544 L102.8796,26.2864 L103.7836,26.2864 L105.6806,30.7544 L109.7066,30.7564 L106.2286,22.5644 L97.5476,22.5644 C96.8786,22.5644 96.5116,22.5644 96.2106,23.5344 C95.8486,24.6904 95.8066,26.8744 95.8066,31.1254 C95.8066,35.3764 95.8486,37.5604 96.2106,38.7174 C96.5116,39.6864 96.8786,39.6864 97.5476,39.6864 L105.1636,39.6874 L101.3906,30.7534 L104.7756,30.7544 Z" id="Fill-15" fill="#0093C9"></path>
                <path d="M132.4042,30.7548 C132.4042,45.5138 120.4392,57.4788 105.6802,57.4788 C90.9212,57.4788 78.9572,45.5138 78.9572,30.7548 C78.9572,15.9958 90.9212,4.0308 105.6802,4.0308 C120.4392,4.0308 132.4042,15.9958 132.4042,30.7548 Z" id="Stroke-16" stroke="#0093C9" stroke-width="3.549"></path>
                <path d="M38.5869,37.9965 C38.5869,40.9375 36.2029,43.3215 33.2619,43.3215 C30.3209,43.3215 27.9359,40.9375 27.9359,37.9965 C27.9359,35.0555 30.3209,32.6715 33.2619,32.6715 C36.2029,32.6715 38.5869,35.0555 38.5869,37.9965" id="Fill-17" fill="#0093C9"></path>
                <path d="M33.2615,37.9965 L78.9565,37.9965" id="Stroke-18" stroke="#0093C9" stroke-width="3"></path>
            </g>
        </g>
    </g>
</svg>

<svg height="60" viewBox="0 0 135 60" width="135" xmlns="http://www.w3.org/2000/svg"><g fill="none" fill-rule="evenodd"><g fill="#0093c9"><path d="m5.231 2.2442c.82 0 1.49.663 1.49 1.497 0 .82-.67 1.49-1.49 1.49-.827 0-1.497-.67-1.497-1.49 0-.827.67-1.497 1.497-1.497zm4.482 0c.822 0 1.49.663 1.49 1.497 0 .82-.668 1.49-1.49 1.49-.827 0-1.495-.67-1.495-1.49 0-.827.668-1.497 1.495-1.497zm-3.31 27.315h-3.416v-22.057h35.854v2.447h2.994v-6.963c0-1.649-1.344-2.986-2.994-2.986h-35.854c-1.65 0-2.987 1.337-2.987 2.986v26.573c0 1.65 1.337 2.994 2.987 2.994h3.416z"/><path d="m11.6336 12.1931c.82 0 1.49.663 1.49 1.497 0 .82-.67 1.49-1.49 1.49-.827 0-1.497-.67-1.497-1.49 0-.827.67-1.497 1.497-1.497zm4.482 0c.822 0 1.49.663 1.49 1.497 0 .82-.668 1.49-1.49 1.49-.827 0-1.495-.67-1.495-1.49 0-.827.668-1.497 1.495-1.497zm-3.31 27.315h-3.416v-22.057h35.854v2.447h2.994v-6.963c0-1.649-1.344-2.986-2.994-2.986h-35.854c-1.65 0-2.987 1.337-2.987 2.986v26.573c0 1.65 1.337 2.994 2.987 2.994h3.416z"/><path d="m15.792 49.4571h35.854v-22.057h-35.854zm2.244-27.315c.821 0 1.49.663 1.49 1.497 0 .82-.669 1.49-1.49 1.49-.827 0-1.496-.67-1.496-1.49 0-.827.669-1.497 1.496-1.497zm4.482 0c.822 0 1.49.663 1.49 1.497 0 .82-.668 1.49-1.49 1.49-.827 0-1.495-.67-1.495-1.49 0-.827.668-1.497 1.495-1.497zm29.128-2.244h-35.854c-1.649 0-2.987 1.337-2.987 2.986v26.573c0 1.65 1.338 2.994 2.987 2.994h35.854c1.65 0 2.994-1.344 2.994-2.994v-26.573c0-1.649-1.344-2.986-2.994-2.986z"/><path d="m97.9072 5.6157 4.689 10.993h-5.968l1.974 4.839h12.094z"/><path d="m102.6111 31.4979 3.95 9.305h-7.032l13.001 15.835-4.688-10.996h5.967l-1.997-4.839h-2.768l-3.953-9.305z"/><path d="m115.4187 26.2894c.147 0 .488-.182.488-1.864 0-1.679-.341-1.861-.488-1.861h-8.33l1.581 3.725z"/><path d="m110.5654 30.756 5.597-.001c.148 0 .489-.182.489-1.863 0-1.68-.341-1.862-.489-1.862l-7.178.001z"/></g><path d="m115.4187 35.9644h-7.527l1.581 3.724h5.946c.147 0 .488-.181.488-1.861 0-1.681-.341-1.863-.488-1.863" fill="#fefefe"/><path d="m116.1622 31.4978h-10.166l1.581 3.725h8.585c.148 0 .489-.183.489-1.862 0-1.681-.341-1.863-.489-1.863" fill="#fefefe"/><g fill="#0093c9"><path d="m115.4187 35.9644h-7.527l1.581 3.724h5.946c.147 0 .488-.181.488-1.861 0-1.681-.341-1.863-.488-1.863"/><path d="m116.1622 31.4978h-10.166l1.581 3.725h8.585c.148 0 .489-.183.489-1.862 0-1.681-.341-1.863-.489-1.863"/><path d="m104.7756 30.7544-1.896-4.468h.904l1.897 4.468 4.026.002-3.478-8.192h-8.681c-.669 0-1.036 0-1.337.97-.362 1.156-.404 3.34-.404 7.591s.042 6.435.404 7.592c.301.969.668.969 1.337.969l7.616.001-3.773-8.934z"/></g><path d="m132.4042 30.7548c0 14.759-11.965 26.724-26.724 26.724s-26.723-11.965-26.723-26.724 11.964-26.724 26.723-26.724 26.724 11.965 26.724 26.724z" stroke="#0093c9" stroke-width="3.549"/><path d="m38.5869 37.9965c0 2.941-2.384 5.325-5.325 5.325s-5.326-2.384-5.326-5.325 2.385-5.325 5.326-5.325 5.325 2.384 5.325 5.325" fill="#0093c9"/><path d="m33.2615 37.9965h45.695" stroke="#0093c9" stroke-width="3"/></g></svg>
